X: 1
T:Elterwater Quickstep
C:Wm. Irwin
M:6/8
O:England
A:North-West
R:Jig
K:G
B/c/|\
dBG dBG| c2e efg| dBG dBG| FAA A2B/c/|\
dBG dBG| c2e efg| dBG cAF| G3 G2::\
g/a/|\
bag agf| {a}gfe dcB| cde dBG| B3 A2 g/a/| \
bag agf| {a}gfe dcB| c2e dcB| A3 G2:|
